src/2-landmarks/service-module--wait.svg

<svg width="1300" height="1000" fill="none" xmlns="http://www.w3.org/2000/svg"><path fill-rule="evenodd" clip-rule="evenodd" d="M1177 335c1.84-.004 8.88-.506 12.65-1.914 4.51-1.684 8.75-4.937 11.67-8.613 2.11-2.652 4.28-8.036 5.32-10.829a25.09 25.09 0 0 0 1.01-3.617l4.86-23.833c.29-1.783.49-3.939.49-5.742 0-4.783-.91-9.015-2.92-13.398-2.01-4.383-4.59-8.232-8.27-11.484-3.68-3.252-8.52-6.048-13.26-7.625-4.74-1.466-6.59-1.778-11.55-1.945-4.62.038-7.3.483-11.68 1.945-5.64 1.883-8.78 3.629-13.13 7.625-4.09 3.749-6.04 6.446-8.27 11.484-2.17 4.905-2.9 8.047-2.92 13.398-.01 2.25.49 5.742.49 5.742l4.09 24.154c.19 1.122.44 2.231.8 3.31.88 2.63 2.83 7.831 5.32 10.853 3.68 4.466 6.72 6.496 12.16 8.575C1168.7 334.931 1177 335 1177 335Zm0-7c1.48-.004 7.15-.427 10.19-1.613 3.63-1.419 7.05-4.16 9.4-7.258 1.65-2.168 3.34-6.503 4.21-8.91.4-1.135.7-2.302.93-3.486l3.88-19.862c.23-1.502.39-3.319.39-4.839 0-4.03-.73-7.596-2.35-11.29-1.62-3.694-3.7-6.937-6.66-9.677-2.97-2.741-6.87-5.097-10.69-6.426-3.81-1.236-5.3-1.498-9.3-1.639-3.73.032-5.88.407-9.41 1.639-4.54 1.587-7.07 3.058-10.58 6.426-3.29 3.159-4.86 5.431-6.66 9.677-1.75 4.134-2.33 6.781-2.35 11.29-.01 1.896.39 4.839.39 4.839l3.27 20.155c.17 1.079.4 2.145.74 3.184.74 2.271 2.27 6.477 4.22 8.951 2.97 3.764 5.41 5.474 9.8 7.226C1170.31 327.942 1177 328 1177 328Zm102.43 141.162c0-1.662-5.91-57.128-23.43-93.162-15.05-29.175-40.06-34.545-80.18-34.979-40.06.442-67.86 5.828-82.9 34.979-17.53 36.034-23.43 91.5-23.43 93.162 0 9.783.18 20.34.46 30.838H888c-11.046 0-20 8.954-20 20v1c0 11.046 8.954 20 20 20v359H0v100h1300V900H895V541h405v-7H888.5c-7.456 0-13.5-6.044-13.5-13.5s6.044-13.5 13.5-13.5H1300v-7h-21.04c.28-10.498.47-21.055.47-30.838Zm-8.1 30.838h-30.01l-2.81-30.91-7.46-50.008a1.234 1.234 0 0 0-1.21-1.071 1.222 1.222 0 0 0-1.23 1.324L1232 488l1.2 12h-117.48l1.2-12 3.39-68.665c.06-.718-.51-1.33-1.23-1.324-.62.005-1.13.462-1.21 1.071l-7.46 50.008-2.81 30.91h-30.02l-.1-27.53h.01s4.44-56.683 20.98-91.955c14.2-28.557 39.38-32.07 77.35-32.495 37.73.447 60.48 4.044 74.63 32.495 16.54 35.272 20.98 91.955 20.98 91.955h.01l-.11 27.53Z" fill="#000"/></svg>

<svg width="1300" height="1000" viewBox="0 0 1300 1000" fill="none" xmlns="http://www.w3.org/2000/svg">
<path fill-rule="evenodd" clip-rule="evenodd" d="M1177 335C1178.84 334.996 1185.88 334.494 1189.65 333.086C1194.16 331.402 1198.4 328.149 1201.32 324.473C1203.43 321.821 1205.6 316.437 1206.64 313.644C1207.07 312.468 1207.4 311.256 1207.65 310.027L1212.51 286.194C1212.8 284.411 1213 282.255 1213 280.452C1213 275.669 1212.09 271.437 1210.08 267.054C1208.07 262.671 1205.49 258.822 1201.81 255.57C1198.13 252.318 1193.29 249.522 1188.55 247.945C1183.81 246.479 1181.96 246.167 1177 246C1172.38 246.038 1169.7 246.483 1165.32 247.945C1159.68 249.828 1156.54 251.574 1152.19 255.57C1148.1 259.319 1146.15 262.016 1143.92 267.054C1141.75 271.959 1141.02 275.101 1141 280.452C1140.99 282.702 1141.49 286.194 1141.49 286.194L1145.58 310.348C1145.77 311.47 1146.02 312.579 1146.38 313.658C1147.26 316.288 1149.21 321.489 1151.7 324.511C1155.38 328.977 1158.42 331.007 1163.86 333.086C1168.7 334.931 1177 335 1177 335ZM1177 328C1178.48 327.996 1184.15 327.573 1187.19 326.387C1190.82 324.968 1194.24 322.227 1196.59 319.129C1198.24 316.961 1199.93 312.626 1200.8 310.219C1201.2 309.084 1201.5 307.917 1201.73 306.733L1205.61 286.871C1205.84 285.369 1206 283.552 1206 282.032C1206 278.002 1205.27 274.436 1203.65 270.742C1202.03 267.048 1199.95 263.805 1196.99 261.065C1194.02 258.324 1190.12 255.968 1186.3 254.639C1182.49 253.403 1181 253.141 1177 253C1173.27 253.032 1171.12 253.407 1167.59 254.639C1163.05 256.226 1160.52 257.697 1157.01 261.065C1153.72 264.224 1152.15 266.496 1150.35 270.742C1148.6 274.876 1148.02 277.523 1148 282.032C1147.99 283.928 1148.39 286.871 1148.39 286.871L1151.66 307.026C1151.83 308.105 1152.06 309.171 1152.4 310.21C1153.14 312.481 1154.67 316.687 1156.62 319.161C1159.59 322.925 1162.03 324.635 1166.42 326.387C1170.31 327.942 1177 328 1177 328Z" fill="black"/>
<path fill-rule="evenodd" clip-rule="evenodd" d="M1279.43 469.162C1279.43 467.5 1273.52 412.034 1256 376C1240.95 346.825 1215.94 341.455 1175.82 341.021C1135.76 341.463 1107.96 346.849 1092.92 376C1075.39 412.034 1069.49 467.5 1069.49 469.162C1069.49 478.945 1069.67 489.502 1069.95 500H888C876.954 500 868 508.954 868 520V521C868 532.046 876.954 541 888 541V900H0V1000H1300V900H895V541H1300V534H888.5C881.044 534 875 527.956 875 520.5C875 513.044 881.044 507 888.5 507H1300V500H1278.96C1279.24 489.502 1279.43 478.945 1279.43 469.162ZM1271.33 500H1241.32L1238.51 469.09L1231.05 419.082C1230.97 418.473 1230.45 418.016 1229.84 418.011C1229.12 418.005 1228.55 418.617 1228.61 419.335L1232 488L1233.2 500H1115.72L1116.92 488L1120.31 419.335C1120.37 418.617 1119.8 418.005 1119.08 418.011C1118.46 418.016 1117.95 418.473 1117.87 419.082L1110.41 469.09L1107.6 500H1077.58L1077.48 472.47H1077.49C1077.49 472.47 1081.93 415.787 1098.47 380.515C1112.67 351.958 1137.85 348.445 1175.82 348.02C1213.55 348.467 1236.3 352.064 1250.45 380.515C1266.99 415.787 1271.43 472.47 1271.43 472.47H1271.44L1271.33 500Z" fill="black"/>
</svg>
